X: 4600
T:Untitled Strathspey #4
M:4/4
L:1/8
S:Northern Fiddler 193
S:Danny O'Donnell
Z:posted by Ted Hastings 3/98
K:A
E||:ABGA FAEC|DFCE (3B,CD (3EFG|ABGA FAEd|(3cAc (3BGB (3Afe (3dcB|!
ABGA FAEC|DFCE (3B,CD (3EFG|AFGE FdEd|CABG ({E}A) AB|!
AaBb aece|dfce Bd c/2B/2A/2G/2|Aa B<b aecd|(3cAc (3BGB (3Afe (3dcB|!
Aa B<b aece|dfce Gd c/2B/2A/2G/2|AECE FDB,d|(3cAc (3BGB  A2 C2E2:||
